X:1
T:Why Do I Sing About Jesus?
T:Why Do I Sing About Jesus?
T:Albert Allen Ketchum
T:Albert Allen Ketchum, 1923
T:Public Domain Courtesy of the Cyber Hymnal™
C:Albert Allen Ketchum
Z:Public Domain
Z:Courtesy of the Cyber Hymnal™
%%score ( 1 2 ) ( 3 4 )
L:1/8
Q:1/4=165
M:4/4
K:G
V:1 treble 
V:2 treble 
V:3 bass 
V:4 bass 
V:1
 [DB]2 [CA]2 [B,G]2 [B,D]2 [^A,^C]2 [B,D]2 | [CE]6 [CF]6 | [B,G]2 [B,D]2 [DG]2 [CA]2 [CD]2 [CA]2 | %3
w: 1.~Deep in my heart there’s a|glad- ness;|Je- sus has saved me from|
w: 2.~On- ly a glimpse of His|good- ness;|That was suf- fi- cient for|
w: 3.~He is the Fair- est of|fair ones;|He is the Li- ly, the|
 B12 | [EA]2 [EA]2 [EA]2 [EA]2 [CG]2 [CE]2 | [B,G]6 D6 | [EG]2 [EG]2 [DG]2 [^CG]2 [CF]2 [CG]2 | %7
w: sin!|Praise to His name, what a|Sav- ior!|Cleans- ing with- out and with-|
w: me.|On- ly one look at the|Sav- ior—|Then was my spir- it set|
w: Rose.|Ri- vers of mer- cy sur-|round Him;|Grace, love and pi- ty He|
 [CA]12 ||"^Refrain" [B,D]2 [B,E]2 [B,F]2 [B,G]2 [CA]2 [DB]2 | [^CE]6 [CA]6 | %10
w: in!|Why do I sing a- bout|Je- sus?|
w: free.|||
w: shows.|||
 [CA]2 [CF]2 [CE]2 [CA]2 [CF]2 [CE]2 | D12 | [B,D]2 [B,E]2 [B,F]2 [B,G]2 [CA]2 [DB]2 | %13
w: Why is He pre- cious to|me?|He is my Lord and my|
w: |||
w: |||
 [Ed]6 [Ec]6 | [DB]2 [B,D]2 [Ec]2 [DB]4 [CA]2 | G12 |] %16
w: Sav- ior,|Dy- ing, he set me|free!|
w: |||
w: |||
V:2
 x12 | x12 | x12 | (D6 =F6) | x12 | x6 D6 | x12 | x12 || x12 | x12 | x12 | (B,6 C6) | x12 | x12 | %14
 x12 | (B,2 D2 C2 B,6) |] %16
V:3
 [G,,G,]2 [G,,D,]2 [G,,D,]2 [G,,G,]2 [G,,G,]2 [G,,G,]2 | [C,G,]6 [A,,D,]6 | %2
w: ~ ~ ~ ~ ~ ~|~ ~|
 [G,,D,]2 [G,,G,]2 [B,,G,]2 [D,F,]2 [D,F,]2 [D,F,]2 | [G,,G,]12 | %4
w: ~ ~ ~ ~ ~ ~|~|
 [C,G,]2 [C,G,]2 [C,G,]2 [C,G,]2 [C,E,]2 [C,G,]2 | [G,,G,]6 [B,,G,]6 | %6
w: ~ ~ ~ ~ ~ ~|~ ~|
 [E,B,]2 [E,B,]2 [E,B,]2 [A,,B,]2 [A,,A,]2 [A,,G,]2 | [D,F,]12 || %8
w: ~ ~ ~ ~ ~ ~|~|
 [G,,G,]2 [G,,G,]2 [G,,G,]2 [G,,D,]2 [G,,D,]2 [G,,G,]2 | [A,,G,]6 [A,,E,]6 | %10
w: ~ ~ ~ ~ ~ ~|~ ~|
 [D,F,]2 [D,A,]2 [D,G,]2 [D,F,]2 [D,A,]2 [D,F,]2 | ([G,,G,]6 [A,,F,]6) | %12
w: ~ ~ ~ ~ ~ ~|~ *|
 [G,,G,]2 [G,,G,]2 [G,,G,]2 [G,,D,]2 [G,,D,]2 [=F,G,]2 | [E,^G,]6 [A,,A,]6 | %14
w: ~ ~ ~ ~ ~ ~|~ ~|
 [D,G,]2 [D,G,]2 [A,,G,]2 F,2 E,2 [D,F,]2 | (G,2 F,2) E,2 D,6 |] %16
w: ~ ~ ~ ~ ~ ~|set * me free!|
V:4
 x12 | x12 | x12 | x12 | x12 | x12 | x12 | x12 || x12 | x12 | x12 | x12 | x12 | x12 | x6 D,4 x2 | %15
 G,,12 |] %16

